X: 13458
T: Flop-Eared Mule, The
R: polka
M: 2/4
K: Gmajor
|:b2 g>d|ed BG|AG/A/ BA|GB dB|
db g>d|ed BG|AG/A/ BA|1 G2 ga:|2 G2 Gb||
|:a2 af/a/|ba fd|e>g fe|df ab|
a2 af/a/|ba fd|e>g fe|1 d2 de:|2 dc BA||

